!!!OTL: 524. Prinz Eugen vor Belgrad. 1717.
!!!ARE: Europa, Mitteleuropa, Deutschland
!!!SCT: E0324B
!!!YEM: Copyright 1995, estate of Helmut Schaffrath.
**kern
*ICvox
*M3/4
*k[f#]
*G:
!LO:TX:a:t=Original der Melodie 1719 handſchriftlich.
{8d
8d
=1
8g
8g
8g
8g
8a
8a
=2
4b
4b}
{8g
8a
=3
4b
4dd
8dd
8cc
=4
4cc
4b}
{8a
8g
=5
8a
8b
4cc
4b
=6
2a}
{8dd
8cc
=7
4b
4dd
8ee
8dd
=8
(8ddL
8ccJ)
4b}
{8a
8g
=9
4a
4cc
8dd
8cc
=10
8ccL
8bJ
4a}
{8g
8g
=11
8gL
8aJ
4b
8a
8a
=12
2g}
==
!!!AGN: historisches Lied, Prinz Eugen (1717)
!!!ONB: ESAC (Essen Associative Code) Database: ERK1
!!!AMT: simple triple
!!!AIN: vox
!!!EED: Helmut Schaffrath
!!!EEV: 1.0
!!!GTL: Historische Lieder
!!!URL-scan: https://rosdok.uni-rostock.de/mcrviewer/recordIdentifier/rosdok_ppn745177662/iview2/phys_0138.iview2?x=-544.0401362767932&y=186.28693991864566&scale=0.4722427387526479&rotation=0&layout=singlePageLayout
!!!ENC: Anna Maria Matuszewska
!!!EEV: 2024/06/12
*-
